X:1
T: Luckie Bawdin's Reel
C:
R:Reel
Q: 232
K:Bm
M:4/4
L:1/8
|:f|dB ((3BBB) dc Bd|cA ce ae ce|dB ((3BBB) dc Bc|df ec B2 zf|
dB ((3BBB) dc Bd|cA ce ae ce|dB ((3BBB) dc Bc|df ec B2 zf|
dB df b2 fd|cA ce a2 ec|dB df b2 fd|ca ec B2 Bf|
dB df af dB|cA ce ae cA|Bd ce df ea|fe ac ((3BBB) B:|
